X:1
T:Emon Acnuck -- Jig
R:jig
B:Ryan's Mammoth Collection
N: 86 444
Z: Contributed by Ray Davies,  ray:davies99.freeserve.co.uk
M:6/8
L:1/8
K:Am
uB|\
vcAd cAG | EGE GAB | cAd cAG | EAA (A2.B) |
cAd cAG | EGE GAB | cAd cAG | EAA A2:|
|:u(e/^f/)|\
gag ged | cAA cd"4"e | "0"eaa ag"0"e | "4"(ed)d d2(e/^f/) |
gag ged | cAA cde | fed cAG | EAA A2:|
